X: 071
T: MISS TEPTOPS - Reel
C: J.G.
%R: hornpipe, strathspey
B: J.Gray's Twenty four Country Dances (for the Year 1812) p.7 #1
S: http://www.eatmt.org.uk/gray_1812.htm 2014-8-7
Z: 2014 John Chambers <jc:trillian.mit.edu>
N: Last note shortened to fix the rhythm.
M: C|
L: 1/16
K: Bb
F2 |\
B4 dB3 fB3 (dcBA) | FB3dc3 ec3c3d |\
BBB2 dB3 fB3dB3 | GB3FE3 DB,3 B,2 :|
|: F2 |\
DB,2FB,3 GB,3FB,3 | FB,3Bd3 ec3cF3 |\
DB,3FB,3 GB,3FB,3 | GB3Ac3 dB3BF3 |
DB,3FB,3 GB,3FB3 | dg3 edcB Ac3c2d2 |\
bB3aB3 gB3fB3 | edcB Ac3dB3 B2 :|
% - - - - - - - - - - - - - - - - - - - - - - - - -
%%begintext align
%% Foot & hands 3 round with the lady. Do. with Gent. down mid:
%% up again. Right & Left at top.
%%endtext
% - - - - - - - - - - - - - - - - - - - - - - - - -
